!!!OTL: ES WAREN ZWEI KOENIGSKINDER
!!!ARE: Europa, Mitteleuropa, Deutschland, Bonn
!!!SCT: E0084A
!!!YEM: Copyright 1995, estate of Helmut Schaffrath.
**kern
*ICvox
*Ivox
*M6/8
*k[b-e-]
*g:
{8d
=1
8g
8g
8a
8b-
8a
8b-
=2
8.g
16a
8b-
4a}
{8d
=3
8g
8f#
8g
8a
8g
8d
=4
2g
8r}
{16g
16a
=5
8b-
8a
8b-
8dd
8cc
8b-
=6
8.a
16b-
8cc
4b-}
{8b-
=7
8g
8f#
8g
8a
8g
8f#
=8
2g
8r}
==
!!!AGN: erzaehlendes Volks - Lied, Sage, Liebe, Leid, Tod, Ballade ?
!!!ONB: ESAC (Essen Associative Code) Database: ERK1
!!!AMT: compound duple
!!!AIN: vox
!!!EED: Helmut Schaffrath
!!!EEV: 1.0
*-
